X:1
T:Title
%%score { ( 1 3 5 ) | ( 2 4 ) }
L:1/8
M:3/4
K:C
V:1 treble nm="Grand Piano"
V:3 treble 
V:5 treble 
V:2 bass 
V:4 bass 
V:1
 z2 z2[Q:1/4=100] EG | A2 .[EG]2 [Ec]A | G2 E2 [EG]A | A2 .[B,G]2 [B,F]D |[M:2/4] E4 |[M:1/4] EE | %6
[M:3/4] D2 .[B,G]2 [CA]A | B2 d2 dd | c2 E2 ^F-[FA] |[M:2/4] G4 |[M:1/4] GG |[M:3/4] A2 G2 ^GG | %12
 A2 c2 AA | d4 z2 |[M:2/4] G4 |[M:1/4] EG |[M:3/4] z2 z2 .[Gc]2 | [EG]2 E2 z2 | G,2 z G AB | %19
[M:2/4] [Ec]4 |] %20
V:2
 z6 | C,G, CG, CA, | C,G, CG, CG, | D,G, F,G, F,G, |[M:2/4] C,G, CG, |[M:1/4] CG, | %6
[M:3/4] B,D, G,G, ^F,D, | G,,D, B,D, B,[F,B,] | A,,E, A,C z C |[M:2/4] [G,B,]4 |[M:1/4] z2 | %11
[M:3/4] C,2 [G,CE]2 [_B,CE]2 | F,,2 [A,CF]2 [_E,G,C]2 | D,2[K:treble] [CD]2 [CD^F]2 | %14
[M:2/4][K:bass] G,,2 [G,B,]2 |[M:1/4] z2 |[M:3/4] C,G, CG, E,F, | C,G, CG, CE | %18
 G,,2[K:treble] z E [G,F]-[G,DF] |[M:2/4][K:bass] [C,G,C]4 |] %20
V:3
 x6 | x6 | x6 | x6 |[M:2/4] x4 |[M:1/4] x2 |[M:3/4] x6 | x6 | z2 z2 .[DB]2 |[M:2/4] x4 | %10
[M:1/4] x2 |[M:3/4] x6 | x6 | z2 z A BA |[M:2/4] z2 F2 |[M:1/4] x2 |[M:3/4] A2 G2 C-[CFA] | x6 | %18
 [EG]4 z2 |[M:2/4] x4 |] %20
V:4
 x6 | x6 | x6 | x6 |[M:2/4] x4 |[M:1/4] x2 |[M:3/4] x6 | x6 | z2 z2 D,2 |[M:2/4] x4 |[M:1/4] x2 | %11
[M:3/4] x6 | x6 | x2[K:treble] x4 |[M:2/4][K:bass] x4 |[M:1/4] x2 |[M:3/4] x6 | x6 | %18
 z2[K:treble] G,2 .B,2 |[M:2/4][K:bass] x4 |] %20
V:5
 x6 | x6 | x6 | x6 |[M:2/4] x4 |[M:1/4] x2 |[M:3/4] x6 | x6 | x6 |[M:2/4] x4 |[M:1/4] x2 | %11
[M:3/4] x6 | x6 | z2 ^F2 z2 |[M:2/4] x4 |[M:1/4] x2 |[M:3/4] x6 | x6 | z2 C2 z2 |[M:2/4] x4 |] %20

